X:1
T:Title
%%score { ( 1 3 ) | ( 2 4 ) }
L:1/8
M:4/4
K:Bb
V:1 treble nm="Grand Piano"
V:3 treble 
V:2 bass 
V:4 bass 
V:1
 z4 z2[Q:1/4=94] D>[CE] | [DF]>[DF] [DF]>[DF] [DF]<[B,D] [B,D]>[CE] | %2
[M:3/4] [DF]>[DF] [EG]>[EG] [DB]2 |[M:1/4] [B,D]>[CE] | %4
[M:4/4] [DF]>[DF] [DF]>[DF] [DF]<[B,D] [DB]>[DA] |[M:3/4] [B,=EG]>[B,EG] [CEA]>[B,EG] [A,F]2 | %6
[M:1/4] [B,D]>[A,CE] |[M:4/4] [DF]>[DF] [DF]>[DF] [DF]<[B,D] [B,D]>[CE] | %8
[M:3/4] [DF]>[DF] [EG]>[EG] [DB]2 |[M:1/4] [DB]>[Ec] | %10
[M:4/4] [Fd]>[Fd] [Fd]>[Fc] [Gc]<[GB] [FA]>G |[M:3/4] F>F G>A [B,DB]2 |[M:1/4] z2 | %13
[M:4/4] B4[K:bass] z4[K:treble] | d4 z2 d2 | [Fc]2 [Fc]2 [=Ed]2 [B,EB]2 |[M:3/4] [A,F]6 | %17
[M:1/4] [B,D]>[A,CE] |[M:4/4] [DF]>[DF] [DF]>[DF] [DF]<[B,D] [B,D]>[CE] | %19
[M:3/4] [DF]>[DF] [EG]>[EG] [DB]2 |[M:1/4] [DB]>[Ec] | %21
[M:4/4] [Fd]>[Fd] [Fd]>[Fc] [Gc]<[GB] [FA]>G |[M:7/4] F>FG>A [DB]2 z2 z2 z4 |] %23
V:2
 z4 z2 [B,,F,]>[B,,F,] | [B,,B,]>[B,,B,] [B,,B,]>[B,,B,] [B,,B,]<[B,,F,] [B,,F,]>[B,,F,] | %2
[M:3/4] [B,,B,]>[B,,B,] [B,,B,]>[B,,B,] [B,,B,]2 |[M:1/4] [B,,F,]>[B,,F,] | %4
[M:4/4] [B,,B,]>[B,,B,] [B,,B,]>[B,,B,] [B,,B,]<[B,,F,] [B,,F,]>[B,,F,] | %5
[M:3/4] C,>C, C,>C, F,>E, |[M:1/4] D,>C, | %7
[M:4/4] [B,,B,]>[B,,B,] [B,,B,]>[B,,B,] [B,,B,]<[B,,F,] [B,,F,]>[B,,F,] | %8
[M:3/4] [B,,B,]>[B,,B,] [B,,B,]>[B,,B,] [B,,B,]2 |[M:1/4] [B,,B,]>[B,,B,] | %10
[M:4/4] [B,,B,]>[B,,B,] [D,B,]>[D,B,] [E,B,]<[E,B,] [E,B,]>[E,B,E] | %11
[M:3/4] [F,B,D]>[F,B,D] [F,A,E]>[F,CE] B,,2 |[M:1/4][K:treble] D>F | %13
[M:4/4][K:bass] [B,,F,]2 B,,2 B,,2 z z/[K:treble] B/ | [B,,B,]2 [B,,B,]2 [B,,F,]2 [B,,B,]2 | %15
 [C,A,]2 [C,A,]2 z z/[K:treble] c/[K:bass] z z/ G/ |[M:3/4] F,2 F,>F, F,>E, |[M:1/4] D,>C, | %18
[M:4/4] [B,,B,]>[B,,B,] [B,,B,]>[B,,B,] [B,,B,]<[B,,F,] [B,,F,]>[B,,F,] | %19
[M:3/4] [B,,B,]>[B,,B,] [B,,B,]>[B,,B,] [B,,B,]2 |[M:1/4] [B,,B,]>[B,,B,] | %21
[M:4/4] [B,,B,]>[B,,B,] [D,B,]>[D,B,] [E,B,]<[E,B,] [E,B,]>[E,B,E] | %22
[M:7/4] [F,B,D]>[F,B,D][F,A,E]>[F,CE] [B,,B,]2 z2 z2 z4 |] %23
V:3
 x8 | x8 |[M:3/4] x6 |[M:1/4] x2 |[M:4/4] x8 |[M:3/4] x6 |[M:1/4] x2 |[M:4/4] x8 |[M:3/4] x6 | %9
[M:1/4] x2 |[M:4/4] x8 |[M:3/4] x6 |[M:1/4] x2 | %13
[M:4/4] D2[K:bass] [F,D]2 [F,DF]2[K:treble] [F,DF]2 | F2 F2 [DB]2 F->[Fd] | x8 |[M:3/4] x6 | %17
[M:1/4] x2 |[M:4/4] x8 |[M:3/4] x6 |[M:1/4] x2 |[M:4/4] x8 |[M:7/4] x14 |] %23
V:4
 x8 | x8 |[M:3/4] x6 |[M:1/4] x2 |[M:4/4] x8 |[M:3/4] x6 |[M:1/4] x2 |[M:4/4] x8 |[M:3/4] x6 | %9
[M:1/4] x2 |[M:4/4] x8 |[M:3/4] x6 |[M:1/4][K:treble] x2 |[M:4/4][K:bass] z4 z2 B,,2[K:treble] | %14
 x8 | z4 [C,B,]2[K:treble][K:bass] C,2 |[M:3/4] x6 |[M:1/4] x2 |[M:4/4] x8 |[M:3/4] x6 | %20
[M:1/4] x2 |[M:4/4] x8 |[M:7/4] x14 |] %23

